X: 10
%%musicspace	0pt
%T: May Day
I: May Day	R-23	A	reel
T: Miss McLeod's Reel
I: Miss McLeod's Reel	R-23	A	reel
M: C|
R: reel
K: A
cB|: "A"A2a2 fefa| c2cB cdcB| A2ag fefa| "E"B2BA BdcB|
     "A"A2a2 fefa| cdcB cde2| "D"fgfe "A"cefg| afec "E"BdcB :|
"A"ABcd ecAB| c2cB cdcB| ABcd ecAc| "E"BcBA BdcB|
"A"ABcd ecAB| cdcB cde2| "D"fgfe "A"cefg| afec "E"BdcB |
"A"A2cA EAcA| c2cB cdcB| A2cA eAcA| "E"BcBA BdcB|
"A"A2cA EAcA| cdcB cde2| "D"fgfe "A"cefg| afec "E"BdcB |] "A - go out on" HA2 |]
%%text Roaring Jelly  R-23
%%text 05/28/99 

#include "RightHeader.h"
%%footer 05/5/99 For use only by Roaring Jelly members
% ---------- set 33 ----------
% Medway Jig I (G) / Medway Jig II (G) / Medway Jig #3 (G)
%%text Set 33
$SmallLMargin
$SmallRMargin
